X:292
T: Hans Wolf und die Gans (48a), S. 153
N: T0181
O: Luxemburg
S: Singendes Volk, Esch-Alzette 1937 posth.]
N: Hesperingen, fff Besch-Oberweis (* 1860), 14.5.1934
N: Lied von der Mutter erlernt
R: Liebeslieder]
M: 6/8
L: 1/16
K: G
D2 | G2G2G2B4GG | ccc2c2c4
c2 | d4e2e2d2d2 | A2A2AAd4
d2 | d2d2d2d2d2e2 | e6d4
e2 | c4c2c2B2A2 | A4G2G4
B2 | d4d2d2c2A2 | A6G2z2

@@@ Tune index: 8346
